public/cloud-icons/azure/data/azure-databricks.svg

<svg xmlns="http://www.w3.org/2000/svg" xml:space="preserve" width="51.02" height="56.69" style="font-size:12px;overflow:visible;color-interpolation-filters:sRGB;fill-rule:evenodd;stroke-linecap:square;stroke-miterlimit:3" viewBox="0 0 51.02 56.69"><g transform="translate(-5.87 -5.874)"><title>Page-1</title><g transform="translate(5.87 -34.016)"><title>Azure Databricks.20952</title><title>Sheet.20953</title><title>Sheet.20954</title><path d="M0 54.66v1.71l25.51 14.76 22.79-13.2v5.33L25.51 76.54 1.28 62.42 0 63.16v10.21l25.51 14.72L48.3 74.94v5.29L25.51 93.51 1.28 79.4 0 80.13v1.73l25.51 14.72 25.51-14.72V71.64l-1.28-.73-24.23 14.12L2.72 71.75v-5.27l22.79 13.14 25.51-14.73V54.82l-1.28-.73-24.23 14.12-21.62-12.6 21.62-12.52 17.81 10.32 1.56-.9V51.1L25.51 39.89Z" style="fill:#ff3621;stroke:none;stroke-width:5.8699398;stroke-linecap:butt"/></g></g></svg>

<?xml version="1.0" encoding="UTF-8" standalone="no"?>
<!-- Generated by Microsoft Visio, SVG Export Azure Databricks.svg Page-1 -->

<svg
   xmlns:dc="http://purl.org/dc/elements/1.1/"
   xmlns:cc="http://creativecommons.org/ns#"
   xmlns:rdf="http://www.w3.org/1999/02/22-rdf-syntax-ns#"
   xmlns:svg="http://www.w3.org/2000/svg"
   xmlns="http://www.w3.org/2000/svg"
   xmlns:sodipodi="http://sodipodi.sourceforge.net/DTD/sodipodi-0.dtd"
   xmlns:inkscape="http://www.inkscape.org/namespaces/inkscape"
   width="51.02"
   height="56.689999"
   viewBox="0 0 51.02 56.69"
   xml:space="preserve"
   class="st2"
   version="1.1"
   id="svg19"
   sodipodi:docname="Azure Databricks.svg"
   style="font-size:12px;overflow:visible;color-interpolation-filters:sRGB;fill:none;fill-rule:evenodd;stroke-linecap:square;stroke-miterlimit:3"
   inkscape:version="0.92.5 (2060ec1f9f, 2020-04-08)"><metadata
   id="metadata25"><rdf:RDF><cc:Work
       rdf:about=""><dc:format>image/svg+xml</dc:format><dc:type
         rdf:resource="http://purl.org/dc/dcmitype/StillImage" /></cc:Work></rdf:RDF></metadata><defs
   id="defs23" /><sodipodi:namedview
   pagecolor="#ffffff"
   bordercolor="#666666"
   borderopacity="1"
   objecttolerance="10"
   gridtolerance="10"
   guidetolerance="10"
   inkscape:pageopacity="0"
   inkscape:pageshadow="2"
   inkscape:window-width="640"
   inkscape:window-height="480"
   id="namedview21"
   showgrid="false"
   inkscape:zoom="2.4436056"
   inkscape:cx="25.51181"
   inkscape:cy="14.275001"
   inkscape:window-x="0"
   inkscape:window-y="0"
   inkscape:window-maximized="0"
   inkscape:current-layer="svg19" />
	<style
   type="text/css"
   id="style2">
	<![CDATA[
		.st1 {fill:#ff3621;stroke:none;stroke-linecap:butt;stroke-width:5.86994}
		.st2 {fill:none;fill-rule:evenodd;font-size:12px;overflow:visible;stroke-linecap:square;stroke-miterlimit:3}
	]]>
	</style>

	<g
   id="g17"
   transform="translate(-5.86994,-5.8743)">
		<title
   id="title4">Page-1</title>
		<g
   id="group20952-1"
   transform="translate(5.86994,-34.0157)">
			<title
   id="title6">Azure Databricks.20952</title>
			<g
   id="group20953-2">
				<title
   id="title8">Sheet.20953</title>
				<g
   id="shape20954-3">
					<title
   id="title10">Sheet.20954</title>
					<path
   d="m 0,54.66 v 1.71 L 25.51,71.13 48.3,57.93 v 5.33 L 25.51,76.54 1.28,62.42 0,63.16 V 73.37 L 25.51,88.09 48.3,74.94 v 5.29 L 25.51,93.51 1.28,79.4 0,80.13 v 1.73 L 25.51,96.58 51.02,81.86 V 71.64 L 49.74,70.91 25.51,85.03 2.72,71.75 V 66.48 L 25.51,79.62 51.02,64.89 V 54.82 L 49.74,54.09 25.51,68.21 3.89,55.61 25.51,43.09 43.32,53.41 44.88,52.51 V 51.1 L 25.51,39.89 Z"
   class="st1"
   id="path12"
   inkscape:connector-curvature="0"
   style="fill:#ff3621;stroke:none;stroke-width:5.8699398;stroke-linecap:butt" />
				</g>
			</g>
		</g>
	</g>
</svg>
